public/ecosystem/qwik-israel.svg

<svg fill="none" height="162" viewBox="0 0 162 162" width="162" xmlns="http://www.w3.org/2000/svg" xmlns:xlink="http://www.w3.org/1999/xlink"><linearGradient id="a" gradientUnits="userSpaceOnUse" x1="35.5" x2="141.5" y1="17" y2="136.5"><stop offset="0" stop-color="#ac7ff4"/><stop offset="1" stop-color="#18b6f6"/></linearGradient><mask id="b" height="156" maskUnits="userSpaceOnUse" width="155" x="4" y="3"><path d="m81.2426 158.018c42.6594 0 77.2424-34.543 77.2424-77.1533 0-42.6106-34.583-77.15327-77.2424-77.15327-42.6599 0-77.2426 34.54267-77.2426 77.15327 0 42.6103 34.5827 77.1533 77.2426 77.1533z" fill="#fff"/></mask><circle cx="81" cy="81" fill="url(#a)" r="81"/><g mask="url(#b)"><path d="m190.296 1.63867h-218.1036v14.87363h218.1036z" fill="#fff"/><path d="m190.296 145.217h-218.1036v14.873h218.1036z" fill="#fff"/><path d="m190.296 16.5164h-218.1036v24.4554h218.1036z" fill="#264697"/><path d="m190.296 120.761h-218.1036v24.456h218.1036z" fill="#264697"/><path d="m190.296 40.9678h-218.1036v79.7932h218.1036z" fill="#fff"/><path d="m101.008 80.9827 9.707-16.9424h-19.4756l-10.0277-17.3958-9.9666 17.3958h-19.3574l9.7073 16.8395-9.7073 16.9424h19.4756l10.0277 17.3958 9.9667-17.3958h19.3573zm.797-11.7762-3.8029 6.5643-3.7838-6.5643zm-6.8086 11.7495-6.7741 11.6963h-13.7695l-6.8504-11.7496 6.7742-11.6962h13.7694zm-13.7542-23.5982 3.8944 6.6825h-7.762zm-20.452 11.8487h7.495l-3.7151 6.4843zm.0076 23.4458 3.8028-6.5644 3.7838 6.5644zm20.5626 11.8487-3.8943-6.6826h7.762zm16.676-18.3331 3.7796 6.4844h-7.4947z" fill="#264697"/></g><path d="m148.734 37.1253-6.666-6.6284-.102.0145v-.0727l-14.176-13.9982 3.493-3.3723-2.052-11.77425-9.738 12.06495c-1.659 1.6716-1.964 4.3899-.771 6.3958l6.084 10.0881c.932 1.5553 2.62 2.4856 4.439 2.4711l3.013-.0291z" fill="#18b6f6"/><path d="m152.373 13.1262-1.339-2.4711-.698-1.26465-.277-.49422-.029.02907-3.668-6.35226c-.917-1.598964-2.634-2.5874179-4.497-2.57288185l-3.217.08721285-9.592.029074c-1.819.014536-3.478.973915-4.395 2.529275l-5.837 11.57068 10.436-12.9516 13.682 15.0303-2.431 2.4566 1.456 11.7596.014-.029v.029h-.029l.029.0291 1.135 1.1048 5.517 5.3928c.233.2181.611-.0436.451-.3197l-3.406-6.7012 5.938-10.9747.19-.218c.072-.0873.145-.1745.203-.2617 1.165-1.5844 1.325-3.7067.364-5.4365z" fill="#ac7ef4"/><path d="m142.984 16.2369-13.725-14.9576 1.95 11.7161-3.493 3.3869 14.22 14.1145-1.281-11.7161z" fill="#fff"/></svg>

<svg width="162" height="162" viewBox="0 0 162 162" fill="none" xmlns="http://www.w3.org/2000/svg">
<circle cx="81" cy="81" r="81" fill="url(#paint0_linear_1830_2452)"/>
<mask id="mask0_1830_2452" style="mask-type:luminance" maskUnits="userSpaceOnUse" x="4" y="3" width="155" height="156">
<path d="M81.2426 158.018C123.902 158.018 158.485 123.475 158.485 80.8647C158.485 38.2541 123.902 3.71143 81.2426 3.71143C38.5827 3.71143 4 38.2541 4 80.8647C4 123.475 38.5827 158.018 81.2426 158.018Z" fill="white"/>
</mask>
<g mask="url(#mask0_1830_2452)">
<path d="M190.296 1.63867H-27.8076V16.5123H190.296V1.63867Z" fill="white"/>
<path d="M190.296 145.217H-27.8076V160.09H190.296V145.217Z" fill="white"/>
<path d="M190.296 16.5164H-27.8076V40.9718H190.296V16.5164Z" fill="#264697"/>
<path d="M190.296 120.761H-27.8076V145.217H190.296V120.761Z" fill="#264697"/>
<path d="M190.296 40.9678H-27.8076V120.761H190.296V40.9678Z" fill="white"/>
<path d="M101.008 80.9827L110.715 64.0403H91.2394L81.2117 46.6445L71.2451 64.0403H51.8877L61.595 80.8798L51.8877 97.8222H71.3633L81.391 115.218L91.3577 97.8222H110.715L101.008 80.9827ZM101.805 69.2065L98.0021 75.7708L94.2183 69.2065H101.805ZM94.9964 80.956L88.2223 92.6523H74.4528L67.6024 80.9027L74.3766 69.2065H88.146L94.9964 80.956ZM81.2422 57.3578L85.1366 64.0403H77.3746L81.2422 57.3578ZM60.7902 69.2065H68.2852L64.5701 75.6908L60.7902 69.2065ZM60.7978 92.6523L64.6006 86.0879L68.3844 92.6523H60.7978ZM81.3604 104.501L77.4661 97.8184H85.2281L81.3604 104.501ZM98.0364 86.1679L101.816 92.6523H94.3213L98.0364 86.1679Z" fill="#264697"/>
</g>
<path d="M148.734 37.1253L142.068 30.4969L141.966 30.5114V30.4387L127.79 16.4405L131.283 13.0682L129.231 1.29395L119.493 13.3589C117.834 15.0305 117.529 17.7488 118.722 19.7547L124.806 29.8428C125.738 31.3981 127.426 32.3284 129.245 32.3139L132.258 32.2848L148.734 37.1253Z" fill="#18B6F6"/>
<path d="M152.373 13.1262L151.034 10.6551L150.336 9.39045L150.059 8.89623L150.03 8.9253L146.362 2.57304C145.445 0.974076 143.728 -0.0143779 141.865 0.00015815L138.648 0.087371L129.056 0.116445C127.237 0.130981 125.578 1.09036 124.661 2.64572L118.824 14.2164L129.26 1.2648L142.942 16.2951L140.511 18.7517L141.967 30.5113L141.981 30.4823V30.5113H141.952L141.981 30.5404L143.116 31.6452L148.633 37.038C148.866 37.2561 149.244 36.9944 149.084 36.7183L145.678 30.0171L151.616 19.0424L151.806 18.8244C151.878 18.7371 151.951 18.6499 152.009 18.5627C153.174 16.9783 153.334 14.856 152.373 13.1262Z" fill="#AC7EF4"/>
<path d="M142.984 16.2369L129.259 1.2793L131.209 12.9954L127.716 16.3823L141.936 30.4968L140.655 18.7807L142.984 16.2369Z" fill="white"/>
<defs>
<linearGradient id="paint0_linear_1830_2452" x1="35.5" y1="17" x2="141.5" y2="136.5" gradientUnits="userSpaceOnUse">
<stop stop-color="#AC7FF4"/>
<stop offset="1" stop-color="#18B6F6"/>
</linearGradient>
</defs>
</svg>
